neru-light-classic/32x32/apps/chrome-store.svg

<?xml version="1.0" encoding="UTF-8" standalone="no"?>
<svg
   xmlns:dc="http://purl.org/dc/elements/1.1/"
   xmlns:cc="http://creativecommons.org/ns#"
   xmlns:rdf="http://www.w3.org/1999/02/22-rdf-syntax-ns#"
   xmlns:svg="http://www.w3.org/2000/svg"
   xmlns="http://www.w3.org/2000/svg"
   xmlns:sodipodi="http://sodipodi.sourceforge.net/DTD/sodipodi-0.dtd"
   xmlns:inkscape="http://www.inkscape.org/namespaces/inkscape"
   height="32"
   width="32"
   version="1"
   id="svg16"
   sodipodi:docname="chrome-store.svg"
   inkscape:version="0.92.1 r">
  <metadata
     id="metadata22">
    <rdf:RDF>
      <cc:Work
         rdf:about="">
        <dc:format>image/svg+xml</dc:format>
        <dc:type
           rdf:resource="http://purl.org/dc/dcmitype/StillImage" />
      </cc:Work>
    </rdf:RDF>
  </metadata>
  <defs
     id="defs20" />
  <sodipodi:namedview
     pagecolor="#ffffff"
     bordercolor="#666666"
     borderopacity="1"
     objecttolerance="10"
     gridtolerance="10"
     guidetolerance="10"
     inkscape:pageopacity="0"
     inkscape:pageshadow="2"
     inkscape:window-width="1680"
     inkscape:window-height="963"
     id="namedview18"
     showgrid="false"
     inkscape:zoom="11.313709"
     inkscape:cx="1.6784854"
     inkscape:cy="16.243824"
     inkscape:window-x="0"
     inkscape:window-y="0"
     inkscape:window-maximized="1"
     inkscape:current-layer="svg16" />
  <path
     style="opacity:1;fill:#4d4d4d;fill-opacity:1;fill-rule:evenodd;stroke:none;stroke-width:1.03534329;stroke-linecap:round;stroke-linejoin:bevel;stroke-miterlimit:4;stroke-dasharray:none;stroke-dashoffset:0;stroke-opacity:1"
     d="M 11.695312 8.2285156 L 11.695312 11.455078 L 20.304688 11.455078 L 20.304688 8.2285156 L 11.695312 8.2285156 z "
     id="path4523" />
  <path
     style="opacity:1;fill:#4587f3;fill-opacity:1;fill-rule:evenodd;stroke:none;stroke-width:1.03534329;stroke-linecap:round;stroke-linejoin:bevel;stroke-miterlimit:4;stroke-dasharray:none;stroke-dashoffset:0;stroke-opacity:1"
     d="M 18.279297 30.101562 C 18.649538 29.898192 19.024149 29.696554 19.320312 29.400391 C 19.723079 28.997624 20.048518 28.517915 20.273438 27.984375 C 20.498357 27.450835 20.623047 26.863335 20.623047 26.246094 C 20.623047 25.628852 20.498357 25.041353 20.273438 24.507812 C 20.048518 23.974272 19.723079 23.494564 19.320312 23.091797 C 18.917546 22.68903 18.437837 22.363592 17.904297 22.138672 C 17.370756 21.913752 16.783257 21.789062 16.166016 21.789062 C 15.548774 21.789062 14.961275 21.913752 14.427734 22.138672 C 13.894194 22.363592 13.414485 22.68903 13.011719 23.091797 C 12.608952 23.494564 12.283514 23.974272 12.058594 24.507812 C 11.833674 25.041353 11.708984 25.628852 11.708984 26.246094 C 11.708984 26.863335 11.833674 27.450835 12.058594 27.984375 C 12.283514 28.517915 12.608952 28.997624 13.011719 29.400391 C 13.307882 29.696554 13.682493 29.898192 14.052734 30.101562 L 18.279297 30.101562 z "
     id="path4587" />
  <path
     style="opacity:1;fill:#dd4d3e;fill-opacity:1;fill-rule:evenodd;stroke:none;stroke-width:1.03534329;stroke-linecap:round;stroke-linejoin:bevel;stroke-miterlimit:4;stroke-dasharray:none;stroke-dashoffset:0;stroke-opacity:1"
     d="M 16.166016 20.007812 L 25.765625 20.007812 C 25.722233 19.649589 25.689477 19.286727 25.552734 18.966797 C 25.358619 18.512635 25.078074 18.104563 24.730469 17.761719 C 24.382865 17.418874 23.96828 17.140676 23.507812 16.949219 C 23.047344 16.757763 22.540517 16.652344 22.007812 16.652344 L 10.242188 16.652344 C 9.7094837 16.652344 9.2026556 16.757763 8.7421875 16.949219 C 8.2817194 17.140676 7.8690887 17.418874 7.5214844 17.761719 C 7.1738793 18.104563 6.8913813 18.512635 6.6972656 18.966797 C 6.5031513 19.420959 6.3964844 19.919903 6.3964844 20.445312 L 6.3964844 22.263672 L 10.222656 28.800781 L 10.330078 29.013672 L 10.357422 29.029297 L 10.597656 29.443359 L 11.310547 30.007812 C 10.974336 29.591179 10.627035 29.180256 10.416016 28.679688 C 10.101128 27.932731 9.9277344 27.110232 9.9277344 26.246094 C 9.9277344 25.381956 10.101128 24.559457 10.416016 23.8125 C 10.730903 23.065543 11.186127 22.393952 11.75 21.830078 C 12.313873 21.266205 12.985465 20.810982 13.732422 20.496094 C 14.39062 20.218623 15.12464 20.102321 15.876953 20.066406 C 15.938408 20.056524 15.966868 20.014918 16.03125 20.007812 L 16.166016 20.007812 z "
     id="path4595" />
  <path
     style="opacity:1;fill:#b3b3b3;fill-opacity:1;fill-rule:evenodd;stroke:none;stroke-width:1.03534329;stroke-linecap:round;stroke-linejoin:bevel;stroke-miterlimit:4;stroke-dasharray:none;stroke-dashoffset:0;stroke-opacity:1"
     d="M 16.166016 20.007812 L 16.03125 20.007812 C 15.966868 20.014918 15.938408 20.056524 15.876953 20.066406 C 15.978404 20.061563 16.063332 20.007812 16.166016 20.007812 z "
     id="path4593" />
  <path
     style="opacity:1;fill:#109f5b;fill-opacity:1;fill-rule:evenodd;stroke:none;stroke-width:1.03534329;stroke-linecap:round;stroke-linejoin:bevel;stroke-miterlimit:4;stroke-dasharray:none;stroke-dashoffset:0;stroke-opacity:1"
     d="M 6.4023438 22.273438 L 6.4023438 29.886719 C 6.7607082 29.958513 7.0925108 30.101563 7.4726562 30.101562 L 11.373047 30.101562 C 11.349462 30.072218 11.334204 30.037128 11.310547 30.007812 L 10.597656 29.443359 L 10.357422 29.029297 L 10.330078 29.013672 L 10.222656 28.800781 L 6.4023438 22.273438 z "
     id="path4600" />
  <path
     style="opacity:1;fill:#b3b3b3;fill-opacity:1;fill-rule:evenodd;stroke:none;stroke-width:1.03534329;stroke-linecap:round;stroke-linejoin:bevel;stroke-miterlimit:4;stroke-dasharray:none;stroke-dashoffset:0;stroke-opacity:1"
     d="M 21.279297 30.101562 L 22.005859 28.892578 C 21.924548 29.025022 21.644713 29.172852 21.488281 29.314453 C 21.308532 29.574813 21.157532 29.854528 20.958984 30.101562 L 21.279297 30.101562 z "
     id="path4598" />
  <path
     style="opacity:1;fill:#b3b3b3;fill-opacity:1;fill-rule:evenodd;stroke:none;stroke-width:1.03534329;stroke-linecap:round;stroke-linejoin:bevel;stroke-miterlimit:4;stroke-dasharray:none;stroke-dashoffset:0;stroke-opacity:1"
     d="M 21.693359 29.148438 L 21.742188 29.0625 L 21.681641 29.027344 C 21.611894 29.119519 21.553878 29.219439 21.488281 29.314453 C 21.550095 29.2585 21.612872 29.205002 21.693359 29.148438 z "
     id="path4605" />
  <path
     style="opacity:1;fill:#ffce41;fill-opacity:1;fill-rule:evenodd;stroke:none;stroke-width:1.03534329;stroke-linecap:round;stroke-linejoin:bevel;stroke-miterlimit:4;stroke-dasharray:none;stroke-dashoffset:0;stroke-opacity:1"
     d="M 25.853516 29.833984 L 25.853516 20.445312 C 25.853516 20.289995 25.783585 20.158136 25.765625 20.007812 L 16.179688 20.007812 C 16.179641 20.007812 16.189454 20.011699 16.189453 20.011719 C 17.044531 20.015002 17.8598 20.184219 18.599609 20.496094 C 19.346566 20.810982 20.018158 21.266205 20.582031 21.830078 C 21.145905 22.393952 21.601128 23.065543 21.916016 23.8125 C 22.230903 24.559457 22.40625 25.381956 22.40625 26.246094 C 22.40625 27.110232 22.230903 27.932731 21.916016 28.679688 C 21.860761 28.810757 21.766123 28.915695 21.681641 29.027344 L 21.742188 29.0625 L 21.693359 29.148438 C 21.816563 29.061853 21.956678 28.972687 22.005859 28.892578 L 21.279297 30.101562 L 24.527344 30.101562 C 24.998458 30.101563 25.417144 29.94296 25.853516 29.833984 z "
     id="path4603" />
  <path
     style="opacity:1;fill:#b3b3b3;fill-opacity:1;fill-rule:evenodd;stroke:none;stroke-width:1.03534329;stroke-linecap:round;stroke-linejoin:bevel;stroke-miterlimit:4;stroke-dasharray:none;stroke-dashoffset:0;stroke-opacity:1"
     d="M 11.695312 6.0761719 L 9.5449219 8.2285156 L 9.5449219 11.455078 L 1.8984375 11.455078 L 1.8984375 24.527344 C 1.8984375 27.235849 3.8490265 29.375192 6.4023438 29.886719 L 6.4023438 22.273438 L 6.3964844 22.263672 L 6.3964844 20.445312 C 6.3964844 19.919904 6.5031513 19.420959 6.6972656 18.966797 C 6.8913813 18.512635 7.1738793 18.104563 7.5214844 17.761719 C 7.8690887 17.418874 8.2817194 17.140676 8.7421875 16.949219 C 9.2026556 16.757763 9.7094827 16.652344 10.242188 16.652344 L 22.007812 16.652344 C 22.540517 16.652344 23.047344 16.757763 23.507812 16.949219 C 23.96828 17.140676 24.382865 17.418874 24.730469 17.761719 C 25.078074 18.104563 25.358619 18.512635 25.552734 18.966797 C 25.689477 19.286727 25.722233 19.649589 25.765625 20.007812 C 25.783585 20.158136 25.853516 20.289995 25.853516 20.445312 L 25.853516 29.833984 C 28.278021 29.228507 30.101564 27.14488 30.101562 24.527344 L 30.101562 11.455078 L 22.455078 11.455078 L 22.455078 8.2285156 L 20.304688 6.0761719 L 11.695312 6.0761719 z M 11.695312 8.2285156 L 20.304688 8.2285156 L 20.304688 11.455078 L 11.695312 11.455078 L 11.695312 8.2285156 z "
     id="path4521" />
  <path
     style="opacity:1;fill:#4d4d4d;fill-opacity:1;fill-rule:evenodd;stroke:none;stroke-width:1.03534329;stroke-linecap:round;stroke-linejoin:bevel;stroke-miterlimit:4;stroke-dasharray:none;stroke-dashoffset:0;stroke-opacity:1"
     d="M 7.4726562 1.8984375 C 4.3840054 1.8984375 1.8984375 4.3840054 1.8984375 7.4726562 L 1.8984375 11.455078 L 9.5449219 11.455078 L 9.5449219 8.2285156 L 11.695312 6.0761719 L 20.304688 6.0761719 L 22.455078 8.2285156 L 22.455078 11.455078 L 30.101562 11.455078 L 30.101562 7.4726562 C 30.101563 4.3840054 27.615995 1.8984375 24.527344 1.8984375 L 7.4726562 1.8984375 z "
     id="rect4497-3" />
  <rect
     style="opacity:1;fill:#ffce41;fill-opacity:1;fill-rule:evenodd;stroke:none;stroke-width:1.67700005;stroke-linecap:round;stroke-linejoin:bevel;stroke-miterlimit:4;stroke-dasharray:none;stroke-dashoffset:0;stroke-opacity:1"
     id="rect4607"
     width="3.3317912"
     height="2.0733809"
     x="19.970831"
     y="28.024406"
     ry="1.0366905" />
  <path
     style="opacity:1;fill:#ffffff;fill-opacity:1;fill-rule:evenodd;stroke:none;stroke-width:1.03534329;stroke-linecap:round;stroke-linejoin:bevel;stroke-miterlimit:4;stroke-dasharray:none;stroke-dashoffset:0;stroke-opacity:1"
     d="M 20.958984 30.101562 C 21.317753 29.655178 21.690147 29.215478 21.916016 28.679688 C 22.230903 27.932731 22.40625 27.110232 22.40625 26.246094 C 22.40625 25.381956 22.230903 24.559457 21.916016 23.8125 C 21.601128 23.065543 21.145905 22.393952 20.582031 21.830078 C 20.018158 21.266205 19.346566 20.810982 18.599609 20.496094 C 17.852653 20.181206 17.030154 20.007812 16.166016 20.007812 C 15.301878 20.007812 14.479379 20.181206 13.732422 20.496094 C 12.985465 20.810982 12.313873 21.266205 11.75 21.830078 C 11.186127 22.393952 10.730903 23.065543 10.416016 23.8125 C 10.101128 24.559457 9.9277344 25.381956 9.9277344 26.246094 C 9.9277344 27.110232 10.101128 27.932731 10.416016 28.679688 C 10.641884 29.215478 11.014278 29.655178 11.373047 30.101562 L 14.052734 30.101562 C 13.682493 29.898193 13.307882 29.696554 13.011719 29.400391 C 12.608952 28.997624 12.283514 28.517915 12.058594 27.984375 C 11.833674 27.450835 11.708984 26.863335 11.708984 26.246094 C 11.708984 25.628852 11.833674 25.041353 12.058594 24.507812 C 12.283514 23.974272 12.608952 23.494564 13.011719 23.091797 C 13.414485 22.68903 13.894194 22.363592 14.427734 22.138672 C 14.961275 21.913752 15.548774 21.789062 16.166016 21.789062 C 16.783257 21.789062 17.370756 21.913752 17.904297 22.138672 C 18.437837 22.363592 18.917547 22.68903 19.320312 23.091797 C 19.723079 23.494564 20.048518 23.974272 20.273438 24.507812 C 20.498356 25.041353 20.623047 25.628852 20.623047 26.246094 C 20.623047 26.863335 20.498356 27.450835 20.273438 27.984375 C 20.048518 28.517915 19.723079 28.997624 19.320312 29.400391 C 19.02415 29.696554 18.649538 29.898192 18.279297 30.101562 L 20.958984 30.101562 z "
     id="path4590" />
</svg>

<svg xmlns="http://www.w3.org/2000/svg" height="32" width="32" version="1"><path d="M11.695 8.229v3.226h8.61V8.23h-8.61z" fill="#4d4d4d" fill-rule="evenodd"/><path d="M18.28 30.102c.37-.204.744-.405 1.04-.702a4.445 4.445 0 0 0 1.303-3.154 4.445 4.445 0 0 0-4.457-4.457 4.445 4.445 0 0 0-4.457 4.457 4.445 4.445 0 0 0 1.303 3.154c.296.297.67.498 1.04.702h4.227z" fill="#4587f3" fill-rule="evenodd"/><path d="M16.166 20.008h9.6c-.044-.358-.077-.721-.213-1.041a3.779 3.779 0 0 0-.823-1.205 3.845 3.845 0 0 0-2.722-1.11H10.242a3.836 3.836 0 0 0-3.545 2.314 3.75 3.75 0 0 0-.3 1.48v1.818l3.826 6.537.107.213.027.015.24.414.714.565c-.337-.417-.684-.828-.895-1.328a6.25 6.25 0 0 1-.488-2.434 6.221 6.221 0 0 1 3.805-5.75c.658-.277 1.392-.394 2.144-.43.061-.01.09-.051.154-.058h.135z" fill="#dd4d3e" fill-rule="evenodd"/><path d="M16.166 20.008h-.135c-.064.007-.093.049-.154.058.101-.004.186-.058.289-.058z" fill="#b3b3b3" fill-rule="evenodd"/><path d="M6.402 22.273v7.614c.359.072.69.215 1.07.215h3.901c-.024-.03-.039-.065-.062-.094l-.713-.565-.24-.414-.028-.015-.107-.213-3.82-6.528z" fill="#109f5b" fill-rule="evenodd"/><path d="M21.28 30.102l.726-1.21c-.081.133-.361.28-.518.422-.18.26-.33.54-.529.788h.32z" fill="#b3b3b3" fill-rule="evenodd"/><path d="M21.693 29.148l.05-.085-.061-.036c-.07.093-.128.192-.194.287.062-.055.125-.109.205-.166z" fill="#b3b3b3" fill-rule="evenodd"/><path d="M25.854 29.834v-9.389c0-.155-.07-.287-.088-.437H16.18l.01.004c.855.003 1.67.172 2.41.484a6.221 6.221 0 0 1 3.316 3.317c.315.746.49 1.569.49 2.433 0 .864-.175 1.687-.49 2.434-.055.13-.15.236-.234.347l.06.035-.049.086c.124-.086.264-.175.313-.255l-.727 1.209h3.248c.471 0 .89-.159 1.327-.268z" fill="#ffce41" fill-rule="evenodd"/><path d="M11.695 6.076L9.545 8.23v3.226H1.898v13.072c0 2.709 1.951 4.848 4.504 5.36v-7.614l-.006-.01v-1.818a3.75 3.75 0 0 1 1.125-2.683 3.836 3.836 0 0 1 2.721-1.11h11.766a3.845 3.845 0 0 1 2.723 1.11c.347.343.628.75.822 1.205.136.32.17.683.213 1.04.018.151.088.283.088.438v9.389c2.424-.605 4.248-2.69 4.248-5.307V11.455h-7.647V8.23l-2.15-2.153h-8.61zm0 2.153h8.61v3.226h-8.61V8.23z" fill="#b3b3b3" fill-rule="evenodd"/><path d="M7.473 1.898a5.561 5.561 0 0 0-5.575 5.575v3.982h7.647V8.23l2.15-2.153h8.61l2.15 2.153v3.226h7.647V7.473a5.561 5.561 0 0 0-5.575-5.575H7.473z" fill="#4d4d4d" fill-rule="evenodd"/><rect width="3.332" height="2.073" x="19.971" y="28.024" ry="1.037" fill="#ffce41" fill-rule="evenodd"/><path d="M20.959 30.102c.359-.447.731-.887.957-1.422.315-.747.49-1.57.49-2.434a6.221 6.221 0 0 0-6.24-6.238 6.221 6.221 0 0 0-6.238 6.238c0 .864.173 1.687.488 2.434.226.535.598.975.957 1.422h2.68c-.37-.204-.745-.405-1.041-.702a4.445 4.445 0 0 1-1.303-3.154 4.445 4.445 0 0 1 4.457-4.457 4.445 4.445 0 0 1 4.457 4.457A4.445 4.445 0 0 1 19.32 29.4c-.296.297-.67.498-1.04.702h2.679z" fill="#fff" fill-rule="evenodd"/></svg>
